X: 1
T: Polska fr\aan Boda
O: Boda, Dalarna, Sweden
Z: 2009 John Chambers <jc:trillian.mit.edu>
S: handwritten MS of unknown origin
M: 3/4
L: 1/16
%%slurgraces
K: Am
e2- \
| ke3(d {cB}"dr"c3)(e ga)gf | (e2[f2d2]) [e4c4] c2(dc \
| B2)(cB A3)(A "dr"c3)c | (d2f2) e6 e2- |
| ke3(d {cB}"dr"c3)(e ga)gf | (e2[f2d2]) [e4c4] c2(dc \
| B2)(cB A3)(c e3)d | (B2G2) "fine"A6 :|
A2- \
| kA3c {c}e4 {e}f4 | k[d4D4] {d}g3(g a3)g \
| (ga)gf d3(d ga)gf | (d2f2) e6 uA2- |
| kA3uc {c}e4 {e}f4 | kd3(d {d}g3)(g a3)(a \
| ga)gf d3(d ga)gf | (d2f2) "d.C."e6 |]
